apps/ui-icons/svgs/star_hex.svg

<svg xmlns="http://www.w3.org/2000/svg" width="24" height="24" viewBox="0 0 24 24" fill="none">
  <path
    d="M12.1819 6.39866C12.1108 6.24274 11.8892 6.24274 11.8181 6.39866L10.3647 9.58199C10.3356 9.64577 10.2752 9.68964 10.2055 9.69763L6.72887 10.0962C6.55859 10.1157 6.49014 10.3264 6.61643 10.4422L9.19484 12.8082C9.24649 12.8556 9.26956 12.9266 9.25563 12.9953L8.56033 16.4249C8.52627 16.5929 8.70547 16.7231 8.8547 16.6388L11.9016 14.9177C11.9627 14.8832 12.0373 14.8832 12.0984 14.9177L15.1453 16.6388C15.2945 16.7231 15.4737 16.5929 15.4397 16.4249L14.7444 12.9953C14.7304 12.9266 14.7535 12.8556 14.8052 12.8082L17.3836 10.4422C17.5099 10.3264 17.4414 10.1157 17.2711 10.0962L13.7945 9.69763C13.7248 9.68964 13.6644 9.64577 13.6353 9.58199L12.1819 6.39866Z"
    fill="#171D26" />
  <path fill-rule="evenodd" clip-rule="evenodd"
    d="M13.4569 1.66561C12.5509 1.16224 11.4491 1.16224 10.5431 1.66561L3.54307 5.5545C2.59068 6.08361 2 7.08747 2 8.17697V15.8234C2 16.9129 2.59068 17.9167 3.54307 18.4458L10.5431 22.3347C11.4491 22.8381 12.5509 22.8381 13.4569 22.3347L20.4569 18.4458C21.4093 17.9167 22 16.9129 22 15.8234V8.17697C22 7.08747 21.4093 6.08361 20.4569 5.5545L13.4569 1.66561ZM11.5144 3.41393C11.8164 3.24614 12.1836 3.24614 12.4856 3.41393L19.4856 7.30282C19.8031 7.47919 20 7.81381 20 8.17697V15.8234C20 16.1865 19.8031 16.5211 19.4856 16.6975L12.4856 20.5864C12.1836 20.7542 11.8164 20.7542 11.5144 20.5864L4.51436 16.6975C4.19689 16.5211 4 16.1865 4 15.8234V8.17697C4 7.81381 4.19689 7.47919 4.51436 7.30282L11.5144 3.41393Z"
    fill="#171D26" />
</svg>

<svg xmlns="http://www.w3.org/2000/svg" width="24" height="24" fill="none" viewBox="0 0 24 24">
  <path fill="#171D26" d="M12.182 6.399a.2.2 0 0 0-.364 0l-1.453 3.183a.2.2 0 0 1-.16.116l-3.476.398a.2.2 0 0 0-.113.346l2.579 2.366a.2.2 0 0 1 .06.187l-.695 3.43a.2.2 0 0 0 .295.214l3.047-1.721a.2.2 0 0 1 .196 0l3.047 1.72a.2.2 0 0 0 .295-.213l-.696-3.43a.2.2 0 0 1 .061-.187l2.579-2.366a.2.2 0 0 0-.113-.346l-3.477-.398a.2.2 0 0 1-.159-.116l-1.453-3.183Z"/>
  <path fill="#171D26" fill-rule="evenodd" d="M13.457 1.666a3 3 0 0 0-2.914 0l-7 3.889A3 3 0 0 0 2 8.177v7.646a3 3 0 0 0 1.543 2.623l7 3.889a3 3 0 0 0 2.914 0l7-3.89A3 3 0 0 0 22 15.824V8.177a3 3 0 0 0-1.543-2.622l-7-3.89Zm-1.943 1.748a1 1 0 0 1 .972 0l7 3.889a1 1 0 0 1 .514.874v7.646a1 1 0 0 1-.514.875l-7 3.888a1 1 0 0 1-.972 0l-7-3.888A1 1 0 0 1 4 15.823V8.177a1 1 0 0 1 .514-.874l7-3.89Z" clip-rule="evenodd"/>
</svg>
